humanity-icon-theme/Humanity/apps/48/application-community.svg

<?xml version="1.0" encoding="UTF-8" standalone="no"?>
<!-- Created with Inkscape (http://www.inkscape.org/) -->

<svg
   xmlns:svg="http://www.w3.org/2000/svg"
   xmlns="http://www.w3.org/2000/svg"
   xmlns:xlink="http://www.w3.org/1999/xlink"
   version="1.0"
   width="48"
   height="48"
   id="svg1">
  <defs
     id="defs3">
    <linearGradient
       id="linearGradient2790">
      <stop
         id="stop2792"
         style="stop-color:black;stop-opacity:1"
         offset="0" />
      <stop
         id="stop2794"
         style="stop-color:black;stop-opacity:0"
         offset="1" />
    </linearGradient>
    <linearGradient
       id="linearGradient2780">
      <stop
         id="stop2782"
         style="stop-color:white;stop-opacity:1"
         offset="0" />
      <stop
         id="stop2784"
         style="stop-color:white;stop-opacity:0"
         offset="1" />
    </linearGradient>
    <linearGradient
       id="linearGradient6621">
      <stop
         id="stop6622"
         style="stop-color:#f5a108;stop-opacity:0"
         offset="0" />
      <stop
         id="stop6623"
         style="stop-color:#fefdc3;stop-opacity:0.74251497"
         offset="1" />
    </linearGradient>
    <linearGradient
       x1="22.819513"
       y1="28.829224"
       x2="12.849945"
       y2="12.239423"
       id="linearGradient7881"
       xlink:href="#linearGradient6621"
       gradientUnits="userSpaceOnUse"
       gradientTransform="matrix(1.059395,0,0,0.544945,1.249822,4.6593951)" />
    <linearGradient
       x1="24"
       y1="5.0793009"
       x2="24"
       y2="41.0793"
       id="linearGradient2786"
       xlink:href="#linearGradient2780"
       gradientUnits="userSpaceOnUse"
       gradientTransform="translate(0,1.9206991)" />
    <radialGradient
       cx="24.375"
       cy="37.75"
       r="17.375"
       fx="24.375"
       fy="37.75"
       id="radialGradient2796"
       xlink:href="#linearGradient2790"
       gradientUnits="userSpaceOnUse"
       gradientTransform="matrix(1,0,0,0.44244605,0,21.610168)" />
    <linearGradient
       id="linearGradient3242">
      <stop
         id="stop3244"
         style="stop-color:#f8b17e;stop-opacity:1"
         offset="0" />
      <stop
         id="stop3246"
         style="stop-color:#e35d4f;stop-opacity:1"
         offset="0.31209752" />
      <stop
         id="stop3248"
         style="stop-color:#c6262e;stop-opacity:1"
         offset="0.57054454" />
      <stop
         id="stop3250"
         style="stop-color:#690b54;stop-opacity:1"
         offset="1" />
    </linearGradient>
    <linearGradient
       id="linearGradient2490">
      <stop
         id="stop2492"
         style="stop-color:#791235;stop-opacity:1"
         offset="0" />
      <stop
         id="stop2494"
         style="stop-color:#dd3b27;stop-opacity:1"
         offset="1" />
    </linearGradient>
    <linearGradient
       x1="24"
       y1="6"
       x2="24"
       y2="51"
       id="linearGradient3853"
       xlink:href="#linearGradient3242"
       gradientUnits="userSpaceOnUse" />
    <linearGradient
       x1="17"
       y1="45"
       x2="17"
       y2="6"
       id="linearGradient3861"
       xlink:href="#linearGradient2490"
       gradientUnits="userSpaceOnUse" />
  </defs>
  <path
     d="m 41.75,38.3125 a 17.375,7.6874997 0 0 1 -34.75,0 17.375,7.6874997 0 1 1 34.75,0 z"
     id="path2788"
     style="opacity:0.3;color:black;fill:url(#radialGradient2796);fill-opacity:1;fill-rule:nonzero;stroke:none;stroke-width:1;marker:none;visibility:visible;display:inline;overflow:visible" />
  <path
     d="M 14.037441,8.5002091 C 8.6695505,8.2361025 6.1688035,11.682995 4.8160932,14.961987 c -1.3423953,4.318005 0.5551864,12.4737 9.8542348,11.853249 5.30413,0 7.412333,-5.437188 10.203869,-6.848651 2.536984,-0.95885 2.736655,-1.044667 5.417018,-1.044667 3.72487,0 10.460854,-2.694587 10.460856,-5.368246 C 39.607133,11.408223 36.567476,7.5875107 30.981913,8.2387066 27.426476,8.6523392 24.06282,11.192735 23.184185,12.456844 21.031824,10.559228 18.283585,8.5002091 14.037441,8.5002091 z"
     id="path7876"
     style="fill:url(#linearGradient7881);fill-opacity:1;fill-rule:evenodd;stroke:none" />
  <path
     d="M 23.836561,10.198612 C 33.125234,0.91380956 45.890047,9.4716508 45.806082,18.277113 45.729323,26.326837 39.591726,30.18195 24.172423,44.5 8.0330559,31.180116 2.346578,28.108501 2.4305434,18.557773 2.5145087,8.6713208 13.442265,1.2514924 23.836561,10.198612 z"
     id="path920"
     style="fill:url(#linearGradient3853);fill-opacity:1;fill-rule:evenodd;stroke:url(#linearGradient3861);stroke-width:0.99999988;stroke-linecap:butt;stroke-linejoin:miter;stroke-miterlimit:4;stroke-opacity:1;stroke-dasharray:none" />
  <path
     d="m 15.125,7.3269491 c -0.832541,-0.07127 -1.6625,-0.05326 -2.4375,0.0625 -5.1712094,0.7724128 -9.0768889,5.4914319 -9.125,11.1562499 -0.040014,4.551443 1.1564029,7.304355 4.46875,10.8125 3.192273,3.380973 8.514501,7.431399 16.125,13.6875 7.282897,-6.733492 12.522022,-11.242733 15.78125,-14.78125 3.382222,-3.672051 4.714318,-6.25799 4.75,-10 0.03678,-3.857494 -2.858932,-7.90752 -6.84375,-9.8124999 C 33.858932,6.5469691 28.96608,6.6439279 24.625,10.983199 a 1.1215297,1.1215297 0 0 1 -1.5,0.0625 c -2.776333,-2.38979 -5.502378,-3.5049404 -8,-3.7187499 z"
     id="path2778"
     style="opacity:0.4;fill:none;stroke:url(#linearGradient2786);stroke-width:1;stroke-linecap:butt;stroke-linejoin:miter;stroke-miterlimit:4;stroke-opacity:1;stroke-dasharray:none" />
</svg>

<?xml version="1.0" encoding="UTF-8" standalone="no"?>
<!-- Created with Inkscape (http://www.inkscape.org/) -->
<svg id="svg1" xmlns="http://www.w3.org/2000/svg" height="48" width="48" version="1.0" xmlns:xlink="http://www.w3.org/1999/xlink">
 <defs id="defs3">
  <linearGradient id="linearGradient7881" y2="12.239" gradientUnits="userSpaceOnUse" x2="12.85" gradientTransform="matrix(1.0594 0 0 .54494 1.2498 4.6594)" y1="28.829" x1="22.82">
   <stop id="stop6622" style="stop-color:#f5a108;stop-opacity:0" offset="0"/>
   <stop id="stop6623" style="stop-color:#fefdc3;stop-opacity:.74251" offset="1"/>
  </linearGradient>
  <linearGradient id="linearGradient2786" y2="41.079" gradientUnits="userSpaceOnUse" x2="24" gradientTransform="translate(0 1.9207)" y1="5.0793" x1="24">
   <stop id="stop2782" style="stop-color:#fff" offset="0"/>
   <stop id="stop2784" style="stop-color:#fff;stop-opacity:0" offset="1"/>
  </linearGradient>
  <radialGradient id="radialGradient2796" gradientUnits="userSpaceOnUse" cy="37.75" cx="24.375" gradientTransform="matrix(1 0 0 .44245 0 21.61)" r="17.375">
   <stop id="stop2792" offset="0"/>
   <stop id="stop2794" style="stop-opacity:0" offset="1"/>
  </radialGradient>
  <linearGradient id="linearGradient3853" y2="51" gradientUnits="userSpaceOnUse" x2="24" y1="6" x1="24">
   <stop id="stop3244" style="stop-color:#f8b17e" offset="0"/>
   <stop id="stop3246" style="stop-color:#e35d4f" offset=".31210"/>
   <stop id="stop3248" style="stop-color:#c6262e" offset=".57054"/>
   <stop id="stop3250" style="stop-color:#690b54" offset="1"/>
  </linearGradient>
  <linearGradient id="linearGradient3861" y2="6" gradientUnits="userSpaceOnUse" x2="17" y1="45" x1="17">
   <stop id="stop2492" style="stop-color:#791235" offset="0"/>
   <stop id="stop2494" style="stop-color:#dd3b27" offset="1"/>
  </linearGradient>
 </defs>
 <path id="path2788" style="opacity:.3;color:black;fill:url(#radialGradient2796)" d="m41.75 38.312a17.375 7.6875 0 0 1 -34.75 0 17.375 7.6875 0 1 1 34.75 0z"/>
 <path id="path7876" style="fill:url(#linearGradient7881);fill-rule:evenodd" d="m14.037 8.5002c-5.3674-0.2641-7.8682 3.1828-9.2209 6.4618-1.3424 4.318 0.55519 12.474 9.8542 11.853 5.3041 0 7.4123-5.4372 10.204-6.8487 2.537-0.95885 2.7367-1.0447 5.417-1.0447 3.7249 0 10.461-2.6946 10.461-5.3682-1.145-2.145-4.185-5.9655-9.77-5.3143-3.556 0.4136-6.919 2.9543-7.798 4.2183-2.152-1.898-4.9-3.9568-9.147-3.9568z"/>
 <path id="path920" style="fill-rule:evenodd;stroke:url(#linearGradient3861);fill:url(#linearGradient3853)" d="m23.837 10.199c9.288-9.2852 22.053-0.7273 21.969 8.078-0.077 8.05-6.214 11.905-21.634 26.223-16.139-13.32-21.825-16.391-21.742-25.942 0.0845-9.8867 11.012-17.306 21.407-8.359z"/>
 <path id="path2778" style="opacity:.4;stroke:url(#linearGradient2786);fill:none" d="m15.125 7.3269c-0.83254-0.07127-1.6625-0.05326-2.4375 0.0625-5.1712 0.77241-9.0769 5.4914-9.125 11.156-0.040014 4.5514 1.1564 7.3044 4.4688 10.812 3.1923 3.381 8.5145 7.4314 16.125 13.688 7.2829-6.7335 12.522-11.243 15.781-14.781 3.3822-3.6721 4.7143-6.258 4.75-10 0.03678-3.8575-2.8589-7.9075-6.8438-9.8125-3.985-1.9044-8.878-1.8075-13.219 2.5316a1.1215 1.1215 0 0 1 -1.5 0.0625c-2.7763-2.3898-5.5024-3.5049-8-3.7187z"/>
</svg>
